X: 3
T: Blue Jig, the
C: Joel Mabus
I: RJ J-61 Am jig
Z: Transcribed to abc by Mary Lou Knack
R: jig
M: 6/8
K: Am
"^A"|:\
"A7"A3 cBA | cBA a3 |\
[1,3 age _edc | "D7"d^de d=dc :|\
[2,4 age "D7"cAG | "E7"_EDC "A"A,3 :|
"^B"|:\
"D7"^FAB cBA | ^FAB cBA |\
[1,3 "A7"^ce^f gfe | ^ce^f gfe :|\
[2,4 "A7"age "D7"cAG | "E7"_EDC "A"A,3 :| 
|: "^B Harmony:"y\
Acd _edc | Acd _edc |\
[1,3 ega _bag | ega _bag :|\
[2,4 age cAG | _EDC A,3 :| 
